X: 4227
T: LIVELY TIM
R: Jig
%R: jig
B: James Kerr "Merry Melodies" v.4 p.25 #227
Z: 2016 John Chambers <jc:trillian.mit.edu>
M: 6/8
L: 1/8
K: A
|:\
a2A cBA | ecA cBA | a2A cBA | BcA GFE |\
a2A cBA | ecA cBA | fga ecA | dBG A3 :|
|:\
B3E GFE | BGB dcB | e2A cBA | cAc efg |\
agf efg | agf efg | fga ecA | dBG A3 :|

%%sep 1 1 500
%%sep 1 1 500

